frontend/public/svg/interface/flag.svg

<svg width="156" height="153" viewBox="0 0 156 153" fill="none" xmlns="http://www.w3.org/2000/svg">
<g clip-path="url(#clip0)">
<path d="M12.0609 95.1263C12.0609 96.6945 12.0609 97.9957 12.0609 99.2962C12.0942 114.808 12.1224 130.32 12.1453 145.833C12.1598 146.936 12.0344 148.038 11.7723 149.111C11.1536 151.485 9.6659 152.694 7.60875 152.701C5.55159 152.707 3.9633 151.469 3.41139 149.159C3.11438 147.754 2.96228 146.323 2.95745 144.888C2.04301 111.545 1.94439 78.1984 2.20964 44.8448C2.31017 32.2229 1.70766 19.5959 1.38599 6.97208C1.30427 3.77205 2.45414 2.1805 5.8609 1.4732C12.606 0.0364486 19.566 -0.0776449 26.3546 1.13733C35.4163 2.70302 44.24 5.42344 52.6099 9.23168C62.1836 13.657 72.0454 17.1649 82.5536 18.835C98.6327 21.3919 114.371 19.9721 129.988 15.7445C135.543 14.2411 141.189 13.0617 146.822 11.8714C148.122 11.6788 149.447 11.7255 150.732 12.0094C151.625 12.1312 152.447 12.5624 153.055 13.2278C153.663 13.8933 154.018 14.7508 154.059 15.6511C154.361 18.1749 154.694 20.711 154.743 23.2471C154.983 35.7633 155.359 48.2833 155.251 60.7982C155.144 73.1999 154.572 85.6007 154.084 97.9976C153.906 102.529 151.714 105.849 147.137 107.021C140.383 108.75 133.614 110.435 126.799 111.899C111.799 115.118 96.7902 113.969 81.8162 111.602C70.0719 109.746 58.7503 106.351 47.6221 102.202C37.5199 98.4359 27.1283 95.7875 16.3081 95.1353C15.013 95.0588 13.7121 95.1263 12.0609 95.1263ZM146.864 22.5393C146.476 22.5577 146.091 22.5995 145.709 22.6644C142.096 23.7146 138.49 24.7927 134.872 25.8274C114.65 31.6109 94.32 32.6763 73.7795 27.4795C65.1293 25.2908 57.0252 21.7742 49.0515 17.9265C40.752 13.9664 31.9293 11.2119 22.8506 9.74572C18.9324 9.12588 14.9472 9.05068 11.0083 9.52258C11.0083 13.9311 10.9124 18.0103 11.0265 22.081C11.3307 32.9297 11.8521 43.7737 12.0441 54.6257C12.2108 64.0391 12.044 73.458 12.0259 82.8746C12.0259 84.0532 12.0259 85.2312 12.0259 86.6348C13.5447 86.6348 14.6304 86.6017 15.7134 86.6413C18.5929 86.7469 21.4907 86.7119 24.3462 87.0393C34.0787 88.1557 43.3833 90.9577 52.5977 94.207C79.3667 103.648 106.579 107.266 134.536 99.9192C138.25 98.9435 141.95 97.9166 145.661 96.9117C147.093 71.9254 145.902 47.3551 146.861 22.5393H146.864Z" fill="black"/>
</g>
<defs>
<clipPath id="clip0">
<rect width="155" height="153" fill="white" transform="translate(0.777344)"/>
</clipPath>
</defs>
</svg>

<svg xmlns="http://www.w3.org/2000/svg" width="156" height="153" fill="none" viewBox="0 0 156 153"><g clip-path="url(#a)"><path fill="#000" d="M12.06 95.126v4.17q.05 23.268.085 46.537a13 13 0 0 1-.373 3.278c-.618 2.374-2.106 3.583-4.163 3.59s-3.646-1.232-4.198-3.542a21 21 0 0 1-.454-4.271c-.914-33.343-1.013-66.69-.747-100.043.1-12.622-.502-25.25-.824-37.873-.082-3.2 1.068-4.791 4.475-5.499a53.3 53.3 0 0 1 20.494-.336A107.7 107.7 0 0 1 52.61 9.232c9.574 4.425 19.435 7.933 29.944 9.603 16.079 2.557 31.817 1.137 47.434-3.09 5.555-1.504 11.201-2.683 16.834-3.874 1.3-.192 2.625-.146 3.91.138a3.85 3.85 0 0 1 3.327 3.642c.302 2.524.635 5.06.684 7.596.24 12.516.616 25.036.508 37.551-.107 12.402-.679 24.803-1.167 37.2-.178 4.531-2.37 7.851-6.947 9.023-6.754 1.729-13.523 3.414-20.338 4.878-15 3.219-30.009 2.07-44.983-.297-11.744-1.856-23.066-5.251-34.194-9.4-10.102-3.766-20.494-6.415-31.314-7.067-1.295-.076-2.596-.009-4.247-.009M146.865 22.54q-.582.028-1.155.125c-3.613 1.05-7.219 2.129-10.837 3.163-20.222 5.784-40.552 6.85-61.093 1.652-8.65-2.188-16.754-5.705-24.727-9.552A96.6 96.6 0 0 0 22.85 9.746a43 43 0 0 0-11.843-.223c0 4.408-.096 8.487.019 12.558.304 10.849.825 21.693 1.017 32.545.167 9.413 0 18.832-.018 28.249v3.76c1.519 0 2.604-.033 3.687.006 2.88.106 5.778.07 8.633.398 9.733 1.117 19.037 3.919 28.252 7.168 26.769 9.441 53.981 13.059 81.938 5.712 3.714-.975 7.414-2.002 11.125-3.007 1.432-24.987.241-49.557 1.2-74.373z"/></g><defs><clipPath id="a"><path fill="#fff" d="M.777 0h155v153h-155z"/></clipPath></defs></svg>
